X:115
T:Polska fr{\aa}n Loftahammar
R:sl\"angpolska
H:jfr #127
A:Sm{\aa}land
B:SvL Sml 20, efter Karl Andersson, Loftahammar
Z:id:hn-sp-115
M:3/4
L:1/16
K:D
a2af b2bg a4 | agfg a2af g2e2 | a2af b2bg a2af | agfe e4 d4 :|
|: f2fd g2ge f2e2 | d2de fede f2d2 | f2fa g2ga f2g2 | agfe e2d2 D4 :|
|: A4 F2FA G2GB | A4 F2FA G2F2 | DEFG ABcA d2f2 | e2ce d2A2 F2D2 |
e4 c2ce d2df | e4 c2ce d2c2 | ABcd efge f2d2 | e4 c2ce d2df |
e4 c2ce d2c2 | ABcd efge f2d2 | cdec d8 :|
<end>
<start>
